packages/nouns-webapp/src/assets/icons/YesVote.svg

<svg width="36" height="36" viewBox="0 0 36 36" fill="none" xmlns="http://www.w3.org/2000/svg">
<rect width="36" height="36" rx="18" fill="#43B369" fill-opacity="0.1"/>
<path fill-rule="evenodd" clip-rule="evenodd" d="M25.6023 11.4099C25.8569 11.6725 26 12.0285 26 12.3998C26 12.771 25.8569 13.1271 25.6023 13.3896L16.7354 25.5901C16.4807 25.8526 16.1353 26 15.7751 26C15.4149 26 15.0695 25.8526 14.8147 25.5901L9.38131 19.9898C9.13387 19.7258 8.99696 19.3721 9.00005 19.005C9.00315 18.6379 9.146 18.2868 9.39785 18.0272C9.6497 17.7676 9.9904 17.6204 10.3466 17.6172C10.7027 17.614 11.0458 17.7551 11.302 18.0102L15.7751 22.6206L23.6816 11.4099C23.9363 11.1474 24.2817 11 24.6419 11C25.0021 11 25.3476 11.1474 25.6023 11.4099Z" fill="#43B369" stroke="#43B369"/>
</svg>

<svg xmlns="http://www.w3.org/2000/svg" width="36" height="36" fill="none">
    <rect width="36" height="36" fill="#43B369" fill-opacity=".1" rx="18"/>
    <path fill="#43B369" fill-rule="evenodd" stroke="#43B369" d="M25.602 11.41c.255.262.398.618.398.99 0 .371-.143.727-.398.99l-8.867 12.2c-.254.263-.6.41-.96.41s-.706-.147-.96-.41l-5.434-5.6A1.42 1.42 0 0 1 9 19.005c.003-.367.146-.718.398-.978s.592-.407.949-.41c.356-.003.699.138.955.393l4.473 4.61 7.907-11.21c.254-.263.6-.41.96-.41s.706.147.96.41Z" clip-rule="evenodd"/>
</svg>
